src/icons/svg/delicious.svg

<?xml version="1.0"?><svg xmlns="http://www.w3.org/2000/svg" width="40" height="40" viewBox="0 0 40 40"><path  d="m35.9 30.7v-10.7h-15.8v-15.7h-10.7q-2 0-3.5 1.4t-1.5 3.6v10.7h15.7v15.7h10.8q2 0 3.5-1.4t1.5-3.6z m1.4-21.4v21.4q0 2.7-1.9 4.6t-4.5 1.8h-21.5q-2.6 0-4.5-1.8t-1.9-4.6v-21.4q0-2.7 1.9-4.6t4.5-1.8h21.5q2.6 0 4.5 1.8t1.9 4.6z"></path></svg>

<svg xmlns="http://www.w3.org/2000/svg" width="40" height="40" viewBox="0 0 40 40"><path d="M35.9 30.7V20H20.1V4.3H9.4q-2 0-3.5 1.4T4.4 9.3V20h15.7v15.7h10.8q2 0 3.5-1.4t1.5-3.6zm1.4-21.4v21.4q0 2.7-1.9 4.6t-4.5 1.8H9.4q-2.6 0-4.5-1.8T3 30.7V9.3q0-2.7 1.9-4.6t4.5-1.8h21.5q2.6 0 4.5 1.8t1.9 4.6z"/></svg>
